img/biget.svg

<svg width="106" height="35" viewBox="0 0 106 35" fill="none" xmlns="http://www.w3.org/2000/svg">
<path d="M14.8686 18.3364H8.54867L2.08338 11.8099C1.66281 11.3853 1.66065 10.6948 2.0791 10.268L10.3704 1.80127H16.8808L14.9125 3.7453L7.68597 11.0409L14.8207 18.3365M12.2708 11.0578H18.5907L25.056 17.5843C25.4765 18.0089 25.4787 18.6994 25.0602 19.1261L16.7689 27.5924H10.2586L12.2268 25.6483L19.4533 18.3527L12.3187 11.0571M62.0574 16.1158V12.5101H59.0163V7.4234H54.831V12.5101H52.2335V16.1158H54.831V22.0182C54.831 25.2998 55.4672 27.7114 59.4332 27.6369L61.9228 27.5873V24.2065H60.6874C58.9246 24.2065 59.0227 23.1624 59.0227 21.2232L59.0159 16.1159H62.0569L62.0574 16.1158ZM104.233 16.1158V12.5101H101.192V7.4234H97.0066V12.5101H94.4091V16.1158H97.0066V22.0182C97.0066 25.2998 97.6429 27.7114 101.609 27.6369L104.098 27.5873V24.2065H102.863C101.1 24.2065 101.199 23.1624 101.199 21.2232L101.192 16.1159H104.232L104.233 16.1158ZM73.9983 14.2202C73.5 13.612 72.9158 13.1406 72.257 12.8146C71.4706 12.4282 70.5505 12.2326 69.5222 12.2326C68.2632 12.2326 67.1343 12.5481 66.1689 13.1695C65.2044 13.7902 64.4393 14.6677 63.896 15.7758C63.3547 16.881 63.0795 18.1788 63.0795 19.6344C63.0795 21.0901 63.3687 22.3115 63.9395 23.4245C64.5112 24.5411 65.3041 25.4306 66.2957 26.0696C67.2891 26.7098 68.422 27.0347 69.6635 27.0347C70.6007 27.0347 71.4568 26.8286 72.2068 26.4215C72.8005 26.0994 73.2979 25.6733 73.6901 25.1527V26.7944C73.6901 27.8118 73.4267 28.5929 72.909 29.1134C72.3897 29.6339 71.6002 29.8966 70.5615 29.8966C69.6667 29.8966 68.9628 29.6906 68.4703 29.2833C68.0674 28.9505 67.7156 28.5134 67.6335 27.5878H63.5714C63.609 28.8828 63.9835 29.7555 64.5118 30.5199C65.1046 31.3767 65.9383 32.0467 66.9919 32.5092C68.0354 32.9665 69.246 33.1987 70.5899 33.1987C72.8457 33.1987 74.6417 32.6226 75.9264 31.4879C77.2193 30.3466 77.8747 28.7487 77.8747 26.7392V12.5095H73.9985L73.9983 14.2202ZM73.2564 21.6374C72.9893 22.1976 72.6122 22.6369 72.1341 22.9409C71.6568 23.2451 71.0806 23.3998 70.4208 23.3998C69.467 23.3998 68.7255 23.0702 68.1527 22.3911C67.582 21.7158 67.2928 20.7882 67.2928 19.6339C67.2928 18.4795 67.582 17.5518 68.1527 16.8755C68.7181 16.2057 69.4814 15.8667 70.4208 15.8667C71.36 15.8667 72.1899 16.2106 72.7734 16.8908C73.3626 17.5764 73.6614 18.5089 73.6614 19.6604C73.6614 20.4066 73.5251 21.0709 73.2564 21.6366L73.2564 21.6374ZM50.924 7.4234H46.5347V11.0575H50.924V7.4234ZM92.4512 14.7773C91.7844 13.9707 90.9487 13.3385 89.967 12.8976C88.9863 12.4572 87.8834 12.2327 86.6903 12.2327C85.228 12.2327 83.9089 12.5701 82.7683 13.235C81.6252 13.902 80.7179 14.8286 80.0712 15.9904C79.4241 17.1513 79.0963 18.4986 79.0963 19.9936C79.0963 21.4885 79.4145 22.9246 80.0415 24.1034C80.6703 25.2862 81.5741 26.2137 82.7278 26.8627C83.8789 27.5081 85.2311 27.8356 86.7467 27.8356C88.6072 27.8356 90.1864 27.3604 91.4418 26.4223C92.6508 25.5199 93.4823 24.2467 93.9353 22.6531H89.6935C89.4704 23.1953 89.156 23.6571 88.7059 23.9824C88.1738 24.3661 87.4865 24.5607 86.6626 24.5607C85.9481 24.5607 85.3359 24.384 84.8431 24.0363C84.348 23.6886 83.9697 23.1746 83.7214 22.5071C83.5723 22.1103 83.4666 21.6541 83.4044 21.1467H94.0095L94.0303 21.0126C94.2196 19.7967 94.172 18.6445 93.8866 17.5884C93.6006 16.5294 93.1179 15.5838 92.4515 14.7772L92.4512 14.7773ZM83.4713 18.3554C83.5361 18.0486 83.6236 17.7292 83.7347 17.4382C83.9932 16.7618 84.3665 16.2413 84.845 15.8936C85.3215 15.5459 85.9143 15.3704 86.6073 15.3704C87.4759 15.3704 88.1887 15.6565 88.7262 16.2195C89.2358 16.7552 89.525 17.4872 89.5866 18.3554H83.4716L83.4713 18.3554ZM50.8374 12.5101H46.6241V27.5873H50.8374V12.5101ZM41.9271 17.036C42.6977 16.5913 43.3154 16.0375 43.7649 15.3846C44.2773 14.6412 44.5374 13.7921 44.5374 12.8623C44.5374 11.1215 43.8968 9.76271 42.6345 8.82327C41.3873 7.89457 39.6713 7.42423 37.5324 7.42423H29.7985V27.5878H37.8414C40.0939 27.5878 41.8975 27.0557 43.2015 26.0055C44.5159 24.9466 45.1831 23.4636 45.1831 21.597C45.1831 20.4606 44.8693 19.4828 44.2513 18.6914C43.6968 17.984 42.9161 17.4276 41.9274 17.0357L41.9271 17.036ZM33.9838 11.0584H37.1961C38.2036 11.0584 38.9642 11.2568 39.4583 11.647C39.9464 12.0323 40.1836 12.5386 40.1836 13.1943C40.1836 13.8499 39.9464 14.3819 39.4583 14.7688C38.9642 15.1591 38.2035 15.3575 37.1961 15.3575H33.9838V11.0584ZM40.0312 23.2705C39.4743 23.7239 38.6241 23.9533 37.5046 23.9533H33.9838V19.0188H37.5046C38.6235 19.0188 39.4747 19.2406 40.0337 19.6761C40.5879 20.1105 40.8573 20.6838 40.8573 21.431C40.8573 22.2169 40.5869 22.8185 40.0311 23.271L40.0312 23.2705Z" fill="#03AAC1"></path>
</svg>

<svg width="106" height="35" fill="none" xmlns="http://www.w3.org/2000/svg"><path d="M14.869 18.336h-6.32L2.083 11.81a1.102 1.102 0 0 1-.004-1.542l8.291-8.467h6.51l-1.967 1.944-7.227 7.296 7.135 7.296m-2.55-7.28h6.32l6.465 6.527c.42.425.423 1.115.004 1.542l-8.291 8.466h-6.51l1.968-1.944 7.226-7.295-7.134-7.296m49.738 5.059V12.51h-3.04V7.423H54.83v5.087h-2.598v3.606h2.598v5.902c0 3.282.636 5.693 4.602 5.619l2.49-.05v-3.38h-1.236c-1.762 0-1.664-1.045-1.664-2.984l-.007-5.107h3.041Zm42.176 0V12.51h-3.041V7.423h-4.185v5.087h-2.598v3.606h2.598v5.902c0 3.282.636 5.693 4.602 5.619l2.489-.05v-3.38h-1.235c-1.763 0-1.664-1.045-1.664-2.984l-.007-5.107h3.041ZM73.998 14.22a5.269 5.269 0 0 0-1.741-1.405c-.786-.387-1.707-.582-2.735-.582-1.259 0-2.388.315-3.353.936-.965.621-1.73 1.499-2.273 2.607-.541 1.105-.816 2.403-.816 3.858 0 1.456.289 2.677.86 3.79.571 1.117 1.364 2.007 2.356 2.646.993.64 2.126.965 3.367.965.938 0 1.794-.206 2.544-.613a4.559 4.559 0 0 0 1.483-1.27v1.642c0 1.018-.263 1.799-.781 2.32-.52.52-1.309.783-2.348.783-.894 0-1.598-.206-2.09-.614-.404-.332-.755-.77-.838-1.695h-4.062c.038 1.295.413 2.168.94 2.932.594.857 1.427 1.527 2.48 1.99 1.044.457 2.255.689 3.599.689 2.256 0 4.052-.576 5.336-1.711 1.293-1.141 1.949-2.74 1.949-4.749V12.51h-3.876v1.711Zm-.742 7.417c-.267.56-.644 1-1.122 1.304-.477.304-1.053.459-1.713.459-.954 0-1.696-.33-2.268-1.009-.571-.675-.86-1.603-.86-2.757 0-1.154.289-2.082.86-2.759.565-.67 1.328-1.008 2.268-1.008.939 0 1.769.344 2.352 1.024.59.685.888 1.618.888 2.77 0 .746-.136 1.41-.405 1.976ZM50.924 7.423h-4.39v3.634h4.39V7.423Zm41.527 7.354a6.806 6.806 0 0 0-2.484-1.88c-.98-.44-2.084-.664-3.277-.664-1.462 0-2.781.337-3.922 1.002a7.202 7.202 0 0 0-2.697 2.755c-.647 1.161-.975 2.509-.975 4.004 0 1.494.319 2.93.945 4.11a6.745 6.745 0 0 0 2.687 2.759c1.15.645 2.503.973 4.019.973 1.86 0 3.44-.476 4.695-1.414 1.209-.902 2.04-2.175 2.493-3.769h-4.242c-.223.542-.537 1.004-.987 1.33-.532.383-1.22.578-2.043.578-.715 0-1.327-.177-1.82-.525-.495-.347-.873-.861-1.122-1.529a5.935 5.935 0 0 1-.317-1.36H94.01l.02-.134c.19-1.216.142-2.369-.143-3.425a7.405 7.405 0 0 0-1.436-2.81Zm-8.98 3.578c.065-.306.153-.626.264-.917.258-.676.632-1.197 1.11-1.544.477-.348 1.07-.524 1.762-.524.869 0 1.582.287 2.12.85.509.535.798 1.267.86 2.135h-6.115ZM50.837 12.51h-4.213v15.077h4.213V12.51Zm-8.91 4.526c.77-.445 1.388-.998 1.838-1.651a4.362 4.362 0 0 0 .772-2.523c0-1.74-.64-3.1-1.902-4.039-1.248-.928-2.964-1.399-5.103-1.399H29.8v20.164h8.042c2.253 0 4.056-.532 5.36-1.582 1.315-1.06 1.982-2.542 1.982-4.409 0-1.136-.314-2.114-.932-2.906-.554-.707-1.335-1.263-2.324-1.655Zm-7.943-5.978h3.212c1.008 0 1.768.199 2.262.589.488.385.726.892.726 1.547 0 .656-.238 1.188-.726 1.575-.494.39-1.255.588-2.262.588h-3.212v-4.299ZM40.03 23.27c-.557.454-1.407.683-2.526.683h-3.521V19.02h3.52c1.12 0 1.97.222 2.53.657.554.434.823 1.008.823 1.755 0 .786-.27 1.387-.826 1.84Z" fill="#03AAC1"/></svg>
